X: 392
T: Kiss Me Sweetheart   #2
B: Francis O'Neill: "The Dance Music of Ireland" (1907) #392
R: single jig
%S: s:2 b:12(6+6)
Z: Frank Nordberg - http://www.musicaviva.com
F: http://www.musicaviva.com/abc/tunes/ireland/oneill-1001/0392/oneill-1001-0392-1.abc
N: Compacted via repeats and multiple endings [JC]
M: 6/8
L: 1/8
K: G
"^A"[|]c |: B2G GBG | A2B c2e |[1,3 B2G GBG | ecA ecA :|[2,4 dBd gfe | dBG G2 :|
"^B"|: c |: B2c d2g | ece d2 [1,3 g | BGB dBG | ecA ecA :|[2,4 c | Bcd gfe | dBG G2 :|
